X:1
T:Siciliano
T:Siciliano
T:from the Flute Sonata no. 2 BMV 1031
T:J.S. Bach 
T:New adaptation from Bach-Gesellschaft
T:by Mutopia
T:by Mutopia
C:J.S. Bach
Z:by Mutopia
%%score 1 ( 2 3 )
L:1/8
Q:1/4=54
M:6/8
K:Bb
V:1 treble nm="Flute"
V:2 treble nm="Guitar"
V:3 treble 
V:1
 d>ed dge | c6 | c>dc cac | c/BA/G z3 | Bde- eae | ed z fbf- | fgf- fed | %7
 c/f/a/c'/b/d'/ c'/b/a/g/f/e/ | d z z z2 z | f>gf fbg | e6 | e>fe ec'e | d/F/G/A/B/c/ d/f/bd | %13
 d c2- cac | c/A/B/d/g/a/ b>ag | a>gf z/ =e/g/f/e/d/ | ^c2 d =e/^g/a/e/f/d/ | %17
 ^c2 d =e/^g/a/e/f/d/ | ^c/d/=eA B/d/c/d/e/d/ | A/d/^c/d/=e/d/ G/B/A/G/F/=E/ | F D z z2 z | z6 | %22
 d>ed dge | c6 | c>dc cac | B/G/A/B/c/d/ e/f/e/d/c/B/ | A/^c/d/A/B/G/ ^F2 G | A/^c/d/A/B/G/ ^F2 G | %28
 A/G/A/B/c/d/ edc | B/d/c/B/A/G/ e/>c/ BA | GdB GgB | z/ B/A/B/g/B/ B/>c/{_B} A2 | G6 |] %33
V:2
 z/ G/B/G/^F/G/ z/ G/B/G/F/G/ | z/ C/E/C/A,/C/ z/ C/E/C/A,/C/ | z/ D/A/^F/=E/F/ z/ A/c/A/D/A/ | %3
 z/ A/G/^F/G/D/ z/ E/D/C/D/B,/ | G,/G/B/G/^F/G/ z/ c/e/c/B/c/ | z/ c/B/A/B/F/ z/ B/d/B/A/B/ | %6
 z/ B/e/B/_A/B/ z/ B/c/=A/B/G/ | F,2 z z2 z | z/ F/A/c/B/d/ c/B/A/G/F/E/ | %9
 z/ B/d/B/A/B/ z/ B/d/B/A/B/ | z/ E/G/E/C/E/ z/ E/G/E/C/E/ | z/ F/c/A/G/A/ z/ c/e/c/F/c/ | %12
 B z/ F/G/A/ B/c/d/B/F/B/- | B/G/A/=E/F/G/ A/B/c/A/D/A/- | A/^F/G/A/B/c/ d/d/g/=f/=e/d/ | %15
 c/c/f/e/d/c/ B/c/B/A/G/F/ | =E/^G/A/E/F/D/ ^C2 D | =E/^G/A/E/F/D/ ^C2 D | E z2 z2 z | z6 | %20
 D/A/d/=c/B/G/ e/g/^f/g/a/g/ | d/g/^f/g/a/g/ c/e/d/c/B/A/ | z/ G/B/G/^F/G/ z/ G/B/G/F/G/ | %23
 z/ C/E/C/A,/C/ z/ C/E/C/A,/C/ | z/ D/A/^F/=E/F/ z/ A/c/A/D/A/ | G>=FE/D/ Cc/B/A/G/ | %26
 ^F2 G A/^c/d/A/B/G/ | ^F2 G A/^c/d/A/B/G/ | ^F/=E/F/G/A/B/ cBA | G3- G/>B/{G} ^F2 | %30
 z/ G/B/G/^F/G/ z/ G/B/G/F/G/ | z/ G/B/G/^F/G/ z/ G/B/G/F/G/ | G6 |] %33
V:3
 G,2 z G,2 z | G,2 z G,2 z | ^F,2 z F,2 z | G,2 z G,2 z | G,2 z A,2 z | B,2 z B,2 z | E2 z E2 =E, | %7
 AF G, A,F,A, | B,F,G, A,F,A, | B,2 z B,2 z | B,2 z B,2 z | A,2 z A,2 z | B,2 z B,2 z | %13
 F,2 z ^F,2 z | G,2 z G,2 C | F,2 B, G,3 | A,2 z A,2 z | A,2 z A,2 z | z/ A,/A/G/F/D/ G2 z | %19
 F2 z =E_DA, | z2 d c2 z | B2 z A^FD | G,2 z G,2 z | G,2 z G,2 z | ^F,2 z F,2 z | G,2 z C2 z | %26
 D2 z D2 z | D2 z D2 z | D2 z .^F,2 z | G,A,B, CDD | G,2 z E2 z | ^C2 z D2 D | G,6 |] %33

